X:47
T:Whiskey Jig, The
R:single jig
D:Maire O'Keefe
O:Cape Breton
Z:id:hn-slide-47
M:6/8
K:G
g2e d2c|BAB G2A|BAB dcB|A2A AGA|B2G c2A|d2B e2c|d2B cBA|1 G3 GBd:|2 G3 G2A||
|:B2c dcB|c2d efg|d2B BAG|1 A2A AGA|B2c dcB|c2d efg|d2B cBA|
G3 G2A:|2 A3 AGA|B2G c2A|d2B e2c|d2B cBA|G3 GBd|:g2g gag|f2f fgf|
~e3 gfe|d3 def|g2d B2G|c2d efg|d2B cBA|G3 GBd:|
<end>
<start>
